X:17281
T:The Three Little Drummers
M:6/8
L:1/8
S:Tola Custy, _Setting Free_
R:Double Jig
K:G
BAG GDG|GDG ABc|BAB edc|BdB cBA|BAG GDG|GDG ABc|BAB edc|1 def g3:||2 def
 g2d|
gdd gdd|gdd dcB|Acc Acc|Acc cBA|BAB cBc|~D3 ABc|BAB edc|1 def g2d:||2 de
f g3||
